X:71
T: Die Rheinbraut
N: Q0047H
O: Osteuropa, Tschechoslowakei, Ost - Boehmen
N: Pause im Schlusstakt korrigiert.
R: Ballade, Braut - Werbung, Todesahnung, Tod
M: 2/4
L: 1/8
K: F
c | ffed | dcc
c | fccB | BAA
G | A2B2 | cfdB | A2G2 | F2z

@@@ Tune index: 807
